korla/apps/scalable/freeoffice-planmaker.svg

<svg xmlns="http://www.w3.org/2000/svg" width="48" height="48" version="1">
 <rect style="fill:#569a40" width="40" height="40" x="4" y="4" rx="2" ry="2"/>
 <path fill="#fff" opacity=".2" d="m6 4c-1.108 0-2 0.892-2 2v1c0-1.108 0.892-2 2-2h36c1.108 0 2 0.892 2 2v-1c0-1.108-0.892-2-2-2h-36z"/>
 <path opacity=".2" d="m6 45c-1.108 0-2-0.892-2-2v-1c0 1.108 0.892 2 2 2h36c1.108 0 2-0.892 2-2v1c0 1.108-0.892 2-2 2h-36z"/>
 <path style="opacity:0.5;fill:#ffffff" d="M 6,6 V 36 H 9 V 9 H 39 V 39 H 12 v 3 H 42 V 6 Z m 0,32 v 4 h 4 v -4 z"/>
 <g style="font-size:34.2857132px;line-height:1.25;letter-spacing:0px;word-spacing:0px;opacity:0.2" transform="matrix(1.0334646,0,0,1,-34.365261,-16.513836)">
  <path transform="matrix(0.96761902,0,0,1,33.25248,17.513836)" d="M 21.945312,12 C 20.88232,12 19.713091,12.04529 18.4375,12.136719 17.185532,12.20529 16.039371,12.35346 15,12.582031 V 15 36 H 19.464844 20 v -7.96564 h 1.697266 c 1.795275,0 3.389502,-0.14817 4.783203,-0.445313 1.3937,-0.297143 2.574464,-0.755904 3.542969,-1.373047 0.968503,-0.64 1.701202,-1.450736 2.197265,-2.433594 C 32.740388,22.776693 33,21.577082 33,20.182797 33,17.508511 32.044245,15.141908 30.130859,13.884766 28.241096,12.627623 25.512242,12 21.945312,12 Z m 0.31836,3.736328 c 0.850394,0 1.642716,0.06989 2.375,0.207031 0.755906,0.114286 1.403959,0.320045 1.947266,0.617188 0.543307,0.297143 0.968304,0.708661 1.27539,1.234375 0.307087,0.525715 0.460938,1.575576 0.460938,2.352719 0,1.622857 -0.578848,2.731886 -1.736328,3.326172 -1.157481,0.571428 -2.809379,0.857422 -4.958985,0.857422 H 20 v -8.524594 c 0.642915,-0.04232 1.372925,-0.07031 2.263672,-0.07031 z"/>
 </g>
 <g style="font-size:34.2857132px;line-height:1.25;letter-spacing:0px;word-spacing:0px" transform="matrix(1.0334646,0,0,1,-34.365261,-17.513836)">
  <path style="fill:#ffffff" transform="matrix(0.96761902,0,0,1,33.25248,17.513836)" d="M 21.945312,12 C 20.88232,12 19.713091,12.04529 18.4375,12.136719 17.185532,12.20529 16.039371,12.35346 15,12.582031 V 15 36 H 19.464844 20 v -7.96564 h 1.697266 c 1.795275,0 3.389502,-0.14817 4.783203,-0.445313 1.3937,-0.297143 2.574464,-0.755904 3.542969,-1.373047 0.968503,-0.64 1.701202,-1.450736 2.197265,-2.433594 C 32.740388,22.776693 33,21.577082 33,20.182797 33,17.508511 32.044245,15.141908 30.130859,13.884766 28.241096,12.627623 25.512242,12 21.945312,12 Z m 0.31836,3.736328 c 0.850394,0 1.642716,0.06989 2.375,0.207031 0.755906,0.114286 1.403959,0.320045 1.947266,0.617188 0.543307,0.297143 0.968304,0.708661 1.27539,1.234375 0.307087,0.525715 0.460938,1.575576 0.460938,2.352719 0,1.622857 -0.578848,2.731886 -1.736328,3.326172 -1.157481,0.571428 -2.809379,0.857422 -4.958985,0.857422 H 20 v -8.524594 c 0.642915,-0.04232 1.372925,-0.07031 2.263672,-0.07031 z"/>
 </g>
</svg>

<svg style="clip-rule:evenodd;fill-rule:evenodd;stroke-linejoin:round;stroke-miterlimit:2" version="1.1" viewBox="0 0 48 48" xmlns="http://www.w3.org/2000/svg">
 <path d="m45.668 8.56c0-3.438-2.79-6.228-6.228-6.228h-30.88c-3.438 0-6.228 2.79-6.228 6.228v30.88c0 3.438 2.79 6.228 6.228 6.228h30.88c3.438 0 6.228-2.79 6.228-6.228v-30.88z" style="fill:url(#_Linear1)"/>
 <path d="m6 6v30h3v-27h30v30h-27v3h30v-36h-36zm0 32v4h4v-4h-4z" style="fill-opacity:.5;fill-rule:nonzero;fill:#fff"/>
 <path d="m21.945 12c-1.063 0-2.232 0.045-3.508 0.137-1.251 0.068-2.398 0.216-3.437 0.445v23.418h5v-7.966h1.697c1.796 0 3.39-0.148 4.783-0.445 1.394-0.297 2.575-0.756 3.543-1.373 0.969-0.64 1.702-1.451 2.198-2.434 0.519-1.005 0.779-2.205 0.779-3.599 0-2.674-0.956-5.041-2.869-6.298-1.89-1.257-4.619-1.885-8.186-1.885zm0.319 3.736c0.85 0 1.642 0.07 2.375 0.207 0.756 0.115 1.404 0.32 1.947 0.618 0.543 0.297 0.968 0.708 1.275 1.234s0.461 1.575 0.461 2.353c0 1.622-0.579 2.732-1.736 3.326-1.158 0.571-2.809 0.857-4.959 0.857h-1.627v-8.524c0.643-0.043 1.373-0.071 2.264-0.071z" style="fill-rule:nonzero;fill:#fff"/>
 <defs>
  <linearGradient id="_Linear1" x2="1" gradientTransform="matrix(2.65365e-15,-43.3373,43.3373,2.65365e-15,201.9,45.6687)" gradientUnits="userSpaceOnUse">
   <stop style="stop-color:#2a6a15" offset="0"/>
   <stop style="stop-color:#569a40" offset="1"/>
  </linearGradient>
 </defs>
</svg>
